X:1
T:Over Jordan
T:Over Jordan
T:James Ramsey Murray
T:Mary Bridges Canedy Slade, 1872
T:Public Domain Courtesy of the Cyber Hymnal™
T:Public Domain Courtesy of the Cyber Hymnal™
C:James Ramsey Murray
Z:Public Domain
Z:Courtesy of the Cyber Hymnal™
%%score ( 1 2 ) 3
L:1/8
Q:1/4=95
M:4/4
K:Eb
V:1 treble 
V:2 treble 
V:3 bass 
V:1
 [EG]>[FA] | [GB]>[Ac] [GB]>[EG] [GB]2 [EG]>[B,F] | [CE]>[CF] [CE]>[A,C] [CE]2 E>[EF] | %3
w: 1.~With His|dear and lov- ing care, Will the|Sav- ior lead us on, To the|
w: 2.~Through the|rock- y wil- der- ness, Will the|Sav- ior lead us on, To the|
w: 3~With His|strong and might- y hand, Will the|Sav- ior lead us on, To that|
w: 4.~In the|Prom- ised Land to be, Will the|Sav- ior lead us on, Till fair|
 [EG]>[FA] [GB]>[Ac] [GB]2 [FA]>[EG] | [EG]4 [DF]2 [EG]>[FA] | %5
w: hills and val- leys fair, O- ver|Jor- dan? Yes, we’ll|
w: land we shall pos- sess, O- ver|Jor- dan? Yes, by|
w: good and plea- sant land, O- ver|Jor- dan? Yes, where|
w: Ca- naan’s shore we see, O- ver|Jor- dan? Yes, to|
 [GB]>[Ac] [GB]>[EG] [GB]2 [EG]>[B,F] | [CE]>[CF] [CE]>[A,C] [CE]2 E>[EF] | %7
w: rest our wea- ry feet, By the|crys- tal wa- ters sweet, When the|
w: night the won- drous ray, Cloud- y|pil- lar by the day, They shall|
w: vine and ol- ive grow, And the|brooks and fount- ains flow, Thirst nor|
w: dwell with Thee at last, Guide and|lead us, as Thou hast, Till the|
 [EG]>[FA] [GB]>[Ac] [GB]2 [EG]>E | [DF]4 E2 ||"^Refrain" [Ge]>[Bd] | [Ac]4 A2 [Ad]>[Ac] | %11
w: peace- ful shore we greet, O- ver|Jor- dan.|||
w: guide us on our way, O- ver|Jor- dan.|O- ver|Jor- dan, o- ver|
w: hun- ger shall we know, O- ver|Jor- dan.|||
w: part- ed wave be passed, O- ver|Jor- dan.|||
 [GB]4 [EG]2 [Ac]>[GB] | [FA]>[=EG] [FA]>[_EG] [DF]2 [EG]>[FA] | %13
w: ||
w: Jor- dan! Yes, we’ll|rest our wea- ry feet, By the|
w: ||
w: ||
 [Ac]>[GB] [GB]>[EG] [GB]2 [Ge]>[Bd] | [Ac]4 A2 [Ad]>[Ac] | [GB]4 [EG]2 E>[EF] | %16
w: |||
w: cryst- al wa- ters sweet, O- ver|Jor- dan, o- ver|Jor- dan, When the|
w: |||
w: |||
 [EG]>[FA] [GB]>[Ac] [GB]2 [EG]>E | [DF]4 E2 |] %18
w: ||
w: peace- ful shore we’ll greet, O- ver|Jor- dan.|
w: ||
w: ||
V:2
 x2 | x8 | x6 E3/2 x/ | x8 | x8 | x8 | x6 E3/2 x/ | x15/2 E/ | x4 E2 || x2 | x4 A2 x2 | x8 | x8 | %13
 x8 | x4 A2 x2 | x6 E3/2 x/ | x15/2 E/ | x4 E2 |] %18
V:3
 [E,B,]>[E,E] | [E,E]>[E,E] [E,E]>[E,B,] [E,E]2 [E,B,]>[E,G,] | %2
 [A,,A,]>[A,,A,] [A,,A,]>[A,,A,] [A,,A,]2 [A,,C]>[A,,C] | %3
 [E,B,]>[E,E] [E,E]>[E,E] [E,E]2 [E,B,]>[E,B,] | [B,,B,]4 [B,,B,]2 [E,B,]>[E,E] | %5
 [E,E]>[E,E] [E,E]>[E,B,] [E,E]2 [E,B,]>[E,G,] | %6
 [A,,A,]>[A,,A,] [A,,A,]>[A,,A,] [A,,A,]2 [A,,C]>[A,,C] | %7
 [E,B,]>[E,E] [E,E]>[E,E] [E,E]2 [E,B,]>[E,G,] | [B,,A,]4 [E,G,]2 || [E,B,]>[E,E] | %10
 [A,E]4 [A,C]2 [A,E]>[A,E] | [E,E]4 [E,B,]2 [E,E]>[E,E] | %12
 [F,C]>[F,C] [B,,B,]>[B,,B,] [B,,B,]2 [B,,B,]>[B,,B,] | %13
 [E,B,]>[E,B,] [E,B,]>[E,B,] [E,B,]2 [E,B,]>[E,E] | [A,E]4 [A,C]2 [A,E]>[A,E] | %15
 [E,E]4 [E,B,]2 [E,G,]>[E,A,] | [E,B,]>[E,E] [E,E]>[E,E] [E,E]2 [E,B,]>[E,G,] | [B,,A,]4 [E,G,]2 |] %18

